X:657
T: UND SCHAU ICH HIN
N: E0607
O: Europa, Mitteleuropa, Deutschland, Schwaben
R: Liebes - Lied,
M: 2/4
L: 1/16
K: A
A2 | G2A2B2A2 | G2A2B2
A2 | A2=G2e2G2 | =G2F2d2
A2 | G2A2B2A2 | G2A2B2
A2 | A2=G2g3c | d4z4 |
E4A4 | c6
cd | c2B2B2Bc | B2A2A4 |
E4A4 | c6
cd | c2B2f3e | A4z2

@@@ Tune index: 4307
